X:77
T:Glenloe
R:reel
B:
M:C
L:1/8
K:C
((3A/B/c/)|dcAG F2 DE|F2 cA dBcA|dcAG F2 Dc|1 dfec dfec:|2 dfec d3||
e|fede eagf|ecgc acgc|fede fage|fdec d3 e|
fede fagf|ecgc acgc|fagf ((3efg) fe|1 ((3fed) ((3edc) defe:|2\
(3fed (3edc d3||
